X: 17870
T: Horse Keane's
R: hornpipe
M: 4/4
K: Gmajor
dc|:B2 AB GABd|eE ED EGFE|DEGA BddB|BAAB c2 dc|
B3A GABd|eEED EGFE|DEGB ADFA|1 G2GF Gddc:|2 G2GF G2 Bd||
e2 ef gage|dBge dBGB|ceec dBGA|BAAG A2 dc|
B2 AB GABd|eEED EGFE|DEGB ADFA|1 G2GF G2 Bd:|2 G2GF G4||

